outputs/icons/enterprise/server_sharp.svg

<svg xmlns="http://www.w3.org/2000/svg" width="1200" height="1200" fill="none"><path fill="#000" d="M375 300q-31.25 0-53.125 21.875T300 375t21.875 53.125T375 450t53.125-21.875T450 375t-21.875-53.125T375 300m0 500q-31.25-.001-53.125 21.875C307.291 836.46 300 854.165 300 875s7.291 38.54 21.875 53.125Q343.75 950.001 375 950q31.25.001 53.125-21.875C442.709 913.54 450 895.835 450 875s-7.291-38.54-21.875-53.125Q406.25 799.999 375 800M150 600V150h900v450zm100-350v250h700V250zm-100 850V650h900v450zm100-350v250h700V750z"/></svg>

<svg width="1200" height="1200" viewBox="0 0 1200 1200" fill="none" xmlns="http://www.w3.org/2000/svg"><path d="M375 300C354.166 300 336.459 307.291 321.875 321.875C307.291 336.459 300 354.166 300 375C300 395.834 307.291 413.541 321.875 428.125C336.459 442.709 354.166 450 375 450C395.834 450 413.541 442.709 428.125 428.125C442.709 413.541 450 395.834 450 375C450 354.166 442.709 336.459 428.125 321.875C413.541 307.291 395.834 300 375 300ZM375 800C354.166 800 336.459 807.29 321.875 821.875C307.291 836.46 300 854.165 300 875C300 895.835 307.291 913.54 321.875 928.125C336.459 942.71 354.166 950 375 950C395.834 950 413.541 942.71 428.125 928.125C442.709 913.54 450 895.835 450 875C450 854.165 442.709 836.46 428.125 821.875C413.541 807.29 395.834 800 375 800ZM150 600V150H1050V600H150ZM250 250V500H950V250H250ZM150 1100V650H1050V1100H150ZM250 750V1000H950V750H250Z" fill="#1F1F1F"/></svg>
